X:17
T:Quick March (A). WHG.017
R:march
S:W.H.Giles MS,Bampton,Oxfordshire,1839p18
O:England
H:donated by Mrs W.R.Kettlewell to VWML,Apr 1927.
A:Bampton, Oxfordshire
N:In MS, bar 4 begins e3; third bar from the end is |d/c/d/e/ d/b/|.
Z:PJHeadford – VMP 2009
M:2/4
L:1/8
Q:1/4=70
K:D
|:f/g/|af ge|(d/c/d/e/) d e/g/|ge fd|e2 fg| af ge|\
d/c/d/e/ db|a>b a/g/f/e/|ddd:|
|:f|e>fge|.f.a.d.f|e>fge|.f.a zf|\
e>fge|.f.a .d.f|eee f/^g/|a>b (a/g/f/g/)|
af ge|d/c/d/e/ d e/f/|ge fd|e3 f/g/|\
af ge|d/c/d/e/ db|a>b a/g/f/e/|ddd:|

